X:1
T: Leslie's Valentine
N:
C:Tune: "Miss Grace Haye's Delight" N Gow
S:
A:
O:
R:
M:6/8
K:G
I:speed 150
%W: A1
% voice 1 (1 lines, 40 notes)
K:G
M:6/8
L:1/16
D2 |G4 c2 B4 c2 d2 B2 d2 e2 f2 g2 G4 c2 B4 c2 d2 B2 G2 A2 F2 D2 |E4 C2 C2 E2 G2 F4 D2 D4 c2 B c d2 B2 c2 A2 F2 G6 G4 D2 |
%W: A2
% voice 1 (1 lines, 39 notes)
G4 c2 B4 c2 d2 B2 d2 e2 f2 g2 G4 c2 B4 c2 d2 B2 G2 A2 F2 D2 |E4 C2 C2 E2 G2 F4 D2 D4 c2 B c d2 B2 c2 A2 F2 G6 G4 d2 |
%W: B1
% voice 1 (1 lines, 45 notes)
d4 g2 f4 g2 a2 f2 d2 e2 ^c2 A2 f2 g2 a2 B2 ^c2 d2 e2 f2 d2 ^c2 B2 A2 |a2 f2 a2 g2 e2 g2 f2 d2 f2 e2 ^c2 A2 B2 g2 f2 e2 d2 ^c2 d4 d2 d2 =c2 B2 |
%W: B2
% voice 1 (1 lines, 40 notes)
c4 c2 c2 a2 c2 B4 B2 B2 g2 B2 A2 B2 A2 A2 B2 c2 d2 B2 G2 A2 F2 D2 |E4 C2 C2 E2 G2 F4 D2 D4 c2 B c d2 B2 c2 A2 F2 G6 G4 ||
